X: 7483
T: Coachman's Whip, The
R: reel
M: 4/4
K: Gmajor
|:d2 BG DGBG|E2 BE dEBE|d2 BG DGBG|FGAc BGGB|
d2 BG DGBG|E2 BE dEBE|FGAB cdef|1 gdcA BGGB:|2 gdcA BGGE||
|:DB,DE G3 B|d2 BG DGBG|E2 BE dEBE|dBAG EAGE|
DB,DE G3 B|d2 BG DGBG|FGAB cdef|1 gdcA BGGB:|2 gdcA BG G2||

